icon-svg/ubiquiti-logo.svg

<svg xmlns="http://www.w3.org/2000/svg" viewBox="0 0 24 24"><path fill="#44739e" d="M17.383 2H6.617A4.63 4.63 0 0 0 2 6.617v10.766A4.63 4.63 0 0 0 6.617 22h10.766A4.63 4.63 0 0 0 22 17.383V6.617A4.63 4.63 0 0 0 17.383 2M8.252 6H9v.742h-.748Zm1.5 1.121v.743H9V7.12ZM9 8.054V8.8h-.743v-.746ZM7.506 6.749h.742v.742h-.742Zm.742 2.419v.743h-.742v-.743ZM6 5.249h.751V6H6Zm0 8.172V7.3h.751v4.1H7.5v-.743h.75v1.655H9V9.539h.75v5.408A4.6 4.6 0 0 0 12 18.751c-3.772 0-6-2.286-6-5.33m12 0c0 2.879-2 5.081-5.407 5.309l-.446-.246a4.4 4.4 0 0 1-1.989-2.658 4.85 4.85 0 0 0 2.369.668c2.776.124 4.662-1.052 5.473-3.7Zm0-1.663-.291.95a4.41 4.41 0 0 1-3.575 3.386 6 6 0 0 0 .111-1.147V7.806c0-1.245.354-2.55 3.755-2.55Z"/></svg>

<svg xmlns="http://www.w3.org/2000/svg" width="24" height="24" viewBox="0 0 24 24">
  <path id="Colore_riempimento_1" fill="#44739e" data-name="Colore riempimento 1" class="cls-1" d="M 17.383,2 H 6.617 A 4.631,4.631 0 0 0 2,6.617 V 17.383 A 4.631,4.631 0 0 0 6.617,22 H 17.383 A 4.631,4.631 0 0 0 22,17.383 V 6.617 A 4.631,4.631 0 0 0 17.383,2 Z M 8.252,6 H 9 V 6.742 H 8.252 Z m 1.5,1.121 V 7.864 H 9 V 7.12 Z M 9,8.054 V 8.8 H 8.257 V 8.054 Z M 7.506,6.749 H 8.248 V 7.491 H 7.506 Z M 8.248,9.168 V 9.911 H 7.506 V 9.168 Z M 6,5.249 H 6.751 V 6 H 6 Z m 0,8.172 V 7.3 h 0.751 v 4.1 H 7.5 v -0.743 h 0.75 v 1.655 H 9 V 9.539 h 0.75 v 5.408 A 4.6,4.6 0 0 0 12,18.751 c -3.772,0 -6,-2.286 -6,-5.33 z m 12,0 c 0,2.879 -2,5.081 -5.407,5.309 l -0.446,-0.246 a 4.4,4.4 0 0 1 -1.989,-2.658 4.853,4.853 0 0 0 2.369,0.668 c 2.776,0.124 4.662,-1.052 5.473,-3.7 z m 0,-1.663 -0.291,0.95 v 0 a 4.406,4.406 0 0 1 -3.575,3.386 6.059,6.059 0 0 0 0.111,-1.147 V 7.806 c 0,-1.245 0.354,-2.55 3.755,-2.55 z"/>
</svg>
